X:8184
T:Yarmouth Hornpipe. GHW.057
T:Rickett's Hp.,aka. GHW.057
T:Manchester Hp,.aka. GHW.057
O:england
M:2/4
L:1/8
Q:360
S:George H.Watson,MS,Swanton Abbott,Norfolk,1850-1880
R:Hornpipe
A:Norfolk
N:4th bar of B part - last note crotchet A in MS transcribed as minim A
N:to correspond with A music
K:D
A2|dcdA FAdf|edcB A2 g2|fafd bgec|dfec A4|
dcdA FAdf|edcB A2 g2|fafd bgec|d2d2d2:|
|:(fg)|afdB G2 fa|bgec A2 (fg)|afdf gece|dfec "cr"A4|
dcdA FAdf|edcB A2 g2|fafd bgec|d2d2d2:|


